transit-skip.svg

<svg fill="currentColor" viewBox="0 0 24 24"><path d="M21 12c0-4-2.5-7.3-6-8.5-.3-1.4-1.5-2.5-3-2.5-1.7 0-3 1.3-3 3s1.3 3 3 3c1.1 0 2.1-.6 2.6-1.5C17.2 6.5 19 9 19 12c0 2.9-1.8 5.5-4.4 6.5-.5-.9-1.5-1.5-2.6-1.5-1.7 0-3 1.3-3 3s1.3 3 3 3c1.5 0 2.7-1.1 3-2.5 3.5-1.2 6-4.6 6-8.5m-9-7c-.6 0-1-.4-1-1s.4-1 1-1 1 .4 1 1-.4 1-1 1m0 16c-.6 0-1-.4-1-1s.4-1 1-1 1 .4 1 1-.4 1-1 1m0-12c1.7 0 3 1.3 3 3s-1.3 3-3 3-3-1.3-3-3 1.3-3 3-3"/></svg>

<svg  viewBox="0 0 24 24" fill="currentColor"><path  d="M21 12C21 8 18.5 4.7 15 3.5C14.7 2.1 13.5 1 12 1C10.3 1 9 2.3 9 4S10.3 7 12 7C13.1 7 14.1 6.4 14.6 5.5C17.2 6.5 19 9 19 12C19 14.9 17.2 17.5 14.6 18.5C14.1 17.6 13.1 17 12 17C10.3 17 9 18.3 9 20S10.3 23 12 23C13.5 23 14.7 21.9 15 20.5C18.5 19.3 21 15.9 21 12M12 5C11.4 5 11 4.6 11 4S11.4 3 12 3 13 3.4 13 4 12.6 5 12 5M12 21C11.4 21 11 20.6 11 20S11.4 19 12 19 13 19.4 13 20 12.6 21 12 21M12 9C13.7 9 15 10.3 15 12S13.7 15 12 15 9 13.7 9 12 10.3 9 12 9Z"/></svg>
